remix/Design/clockwise-line.svg

<svg viewBox="0 0 24 24" fill="currentColor" xmlns="http://www.w3.org/2000/svg"><path d="M20 10.5858L21.8284 8.75736L23.2426 10.1716L19 14.4142L14.7574 10.1716L16.1716 8.75736L18 10.5858V8C18 6.34315 16.6569 5 15 5H11V3H15C17.7614 3 20 5.23858 20 8V10.5858ZM13 9C13.5523 9 14 9.44772 14 10V20C14 20.5523 13.5523 21 13 21H3C2.44772 21 2 20.5523 2 20V10C2 9.44772 2.44772 9 3 9H13ZM12 11H4V19H12V11Z"/></svg>

<svg viewBox="0 0 24 24" xmlns="http://www.w3.org/2000/svg"><path fill="none" d="M0 0h24v24H0Z"/><path d="M20 10.586l1.82-1.83 1.41 1.41 -4.25 4.24 -4.243-4.25 1.41-1.42 1.82 1.82V7.96v0c0-1.66-1.35-3-3-3h-4v-2h4v0c2.76 0 5 2.23 5 5v2.58Zm-7-1.59v0c.55 0 1 .44 1 1v10 0c0 .55-.45 1-1 1H3v0c-.56 0-1-.45-1-1v-10 0c0-.56.44-1 1-1h10Zm-1 2H4v8h8v-8Z"/></svg>
